X: 298
T: Bestenigâr Seyir
C: Şefik Gürmeriç
O: Turkey
F: http://compmusic.upf.edu/node/140
N: bestenigar--seyir--duyek--1--sefik_gurmeric
N: makam= bestenigar
N: form= seyir
N: usul= duyek = 8/4
M: 8/4
L: 1/16
K: C _2/4B _3/4d  
Q: 1/4=120
%%MIDI tuningsystem comma53
A6 B2 c2 Bd c4  | z2 d2 c2 B2 AB AG ^F4  | \
w:   |   | 
z4 ^F2 G2 A4 B4  | c2 d4 c2 cB BA B4  | 
w:   |   | 
z4 A2 B2 c2 d2 e2 f2  | g2 f2 e2 d2 cB AB c4  | \
w:   |   | 
z4 c2 d2 e2 f2 g2 _7/8a2  | 
w:   | 
g2 f2 e2 g2 f8  | z4 e2 f2 g2 f2 e2 d2  | \
w:   |   | 
c2 d4 c2 cB BA A4  | z4 A2 B2 c2 d2 c2 B2  | 
w:   |   | 
A2 G2 G2 ^F2 G4 B4  | z2 A4 B2 c4 B2 A2  | \
w:   |   | 
A3G AG G^F F8  | |


